X:1
T:Title
%%score { 1 | ( 2 3 ) }
L:1/8
M:3/4
K:Ab
V:1 treble nm="Grand Piano"
V:2 bass 
V:3 bass 
V:1
 z2 z2[Q:1/4=100] [Ec][DB] | [CA]3 [EB] [A,FA][A,DF] | [A,CE]2 [CEA]2 [A,EA]2 | %3
 [EB]3 [EB] [Ec]>[Ec] |[M:2/4] B4 |[M:1/4] c2 |[M:3/4] [Fd]3 [Fd] [Ec][EB] | [Ec]2 [CEA]2 [A,CF]2 | %8
 [G,B,E]4 [B,EG]F |[M:2/4] E4 |[M:1/4] E2 |[M:3/4] d3 c dB | c2 A2 c2 | e3 c c>A |[M:2/4] B4 | %15
[M:1/4] E2 |[M:3/4] c3 [EA] Bc | A2 F2 AF | E4 AB |[M:2/4] [CEA]4 |] %20
V:2
 z2 z2 [A,,A,]2 | [A,,A,]3 [C,A,] D,D, | A,,2 A,,2 C,2 | [E,G,]3 [E,G,] [A,,A,]>[C,A,] | %4
[M:2/4] [E,G,E]4 |[M:1/4] [A,E]2 |[M:3/4] [D,A,]3 [D,A,] [E,A,][D,G,] | [A,,A,]2 A,,2 A,,2 | %8
 B,,4 z [A,=D] |[M:2/4] [E,G,]4 |[M:1/4] [E,G,]2 |[M:3/4] [E,B,E]3 [E,A,E] [E,B,E][E,G,E] | %12
 [A,E]2 [A,CE]2 [A,EA]2 | [A,CA]3 [A,E][K:bass] [F,A,F]>[F,A,C] |[M:2/4] [E,G,E]4 | %15
[M:1/4] [E,G,]2 |[M:3/4] [A,E]3 [C,A,] [E,G,E][E,G,E] | [F,A,C]2 [D,A,D]2 [D,D]-[D,A,D] | %18
 [E,A,C]4 CD |[M:2/4] A,,4 |] %20
V:3
 x6 | x6 | x6 | x6 |[M:2/4] x4 |[M:1/4] x2 |[M:3/4] x6 | x6 | z2 z2 B,,2 |[M:2/4] x4 |[M:1/4] x2 | %11
[M:3/4] x6 | x6 | x4[K:bass] x2 |[M:2/4] x4 |[M:1/4] x2 |[M:3/4] x6 | z2 z2 .F,2 | z2 z2 [E,E]2 | %19
[M:2/4] x4 |] %20

